Papirus/64x64/apps/autoremesher.svg

<?xml version="1.0" encoding="UTF-8" standalone="no"?>
<svg
   id="_图层_1"
   version="1.1"
   viewBox="0 0 64 64" width="64" height="64"
   sodipodi:docname="autoremesher.svg"
   xml:space="preserve"
   inkscape:version="1.4 (e7c3feb100, 2024-10-09)"
   xmlns:inkscape="http://www.inkscape.org/namespaces/inkscape"
   xmlns:sodipodi="http://sodipodi.sourceforge.net/DTD/sodipodi-0.dtd"
   xmlns="http://www.w3.org/2000/svg"
   xmlns:svg="http://www.w3.org/2000/svg"><sodipodi:namedview
     id="namedview26"
     pagecolor="#505050"
     bordercolor="#eeeeee"
     borderopacity="1"
     inkscape:showpageshadow="0"
     inkscape:pageopacity="0"
     inkscape:pagecheckerboard="0"
     inkscape:deskcolor="#505050"
     inkscape:zoom="10.6875"
     inkscape:cx="32"
     inkscape:cy="33.497076"
     inkscape:window-width="1920"
     inkscape:window-height="939"
     inkscape:window-x="0"
     inkscape:window-y="34"
     inkscape:window-maximized="1"
     inkscape:current-layer="_图层_1"
     showguides="true" /><!-- Generator: Adobe Illustrator 29.0.1, SVG Export Plug-In . SVG Version: 2.1.0 Build 192)  --><defs
     id="defs6"><style
       id="style1">
      .st0 {
        fill-opacity: .5;
      }

      .st0, .st1, .st2, .st3, .st4, .st5, .st6, .st7 {
        fill: #fff;
      }

      .st8 {
        fill: #133c9a;
      }

      .st2, .st9 {
        display: none;
      }

      .st3 {
        fill-opacity: .2;
      }

      .st4 {
        fill-opacity: .9;
      }

      .st10 {
        fill: #3370ff;
      }

      .st11 {
        fill: url(#_未命名的渐变_3);
      }

      .st12 {
        fill: url(#_未命名的渐变);
      }

      .st5 {
        fill-opacity: .3;
      }

      .st6 {
        fill-opacity: 0;
      }

      .st7 {
        fill-opacity: .7;
      }

      .st13 {
        fill: #00d6b9;
      }

      .st14 {
        fill: url(#_未命名的渐变_2);
      }
    </style><radialGradient
       id="_未命名的渐变"
       data-name="未命名的渐变"
       cx="123.9"
       cy="-40.2"
       fx="123.9"
       fy="-40.2"
       r="59.4"
       gradientTransform="translate(-26.8 25.5) scale(.6 -.7)"
       gradientUnits="userSpaceOnUse"><stop
         offset="0"
         stop-color="#db202e"
         id="stop1" /><stop
         offset="1"
         stop-color="#e01b24"
         id="stop2" /></radialGradient><radialGradient
       id="_未命名的渐变_2"
       data-name="未命名的渐变 2"
       cx="67.6"
       cy="26.8"
       fx="67.6"
       fy="26.8"
       r="105.2"
       gradientTransform="translate(-26.6 25.3) scale(.6 -.7)"
       gradientUnits="userSpaceOnUse"><stop
         offset="0"
         stop-color="#ffb648"
         id="stop3" /><stop
         offset="1"
         stop-color="#ff7800"
         stop-opacity="0"
         id="stop4" /></radialGradient><radialGradient
       id="_未命名的渐变_3"
       data-name="未命名的渐变 3"
       cx="61.7"
       cy="18.6"
       fx="61.7"
       fy="18.6"
       r="68"
       gradientTransform="translate(-26.8 25.8) scale(.6 -.7)"
       gradientUnits="userSpaceOnUse"><stop
         offset="0"
         stop-color="#c64600"
         id="stop5" /><stop
         offset="1"
         stop-color="#a51d2d"
         id="stop6" /></radialGradient></defs><path
     class="st1"
     d="M47.5,64.1H13.8c-7.6,0-13.8-6.3-13.8-13.8V13.7C0,6.2,6.2,0,13.7,0h36.6c7.5,0,13.7,6.2,13.7,13.7v36.6c0,7.5-6.2,13.7-13.7,13.7h-2.9.1Z"
     id="path6"
     style="fill:#606d6e;fill-opacity:1" /><g
     id="g39"
     transform="matrix(1.1403509,0,0,1.1428132,-4.4912281,-4.5624808)"><path
       style="opacity:0.2"
       d="M 46.923828,20.841797 C 44.53125,20.9375 43,24 43,24 c 0,0 -0.830695,-2.542326 -3,-2 -4,1 -6.519898,3 -10,3 -13,0 -15,6 -15,6 0,0 -2,1 -2,3 0,2 2,2 2,2 0,0 0,2 1,2 3,0 3.39746,-0.457869 5,0 7,2 9,3 12,3 3,0 4,-1 4,-1 l 9.289062,16.042969 A 28,28 0 0 0 58.353516,41.359375 L 49,30 48,29 c 0,0 2.529822,-7.156726 0,-8 -0.375,-0.125 -0.734375,-0.171875 -1.076172,-0.158203 z"
       id="path3-5" /><path
       style="fill:#ffffff"
       d="M 46.923828,19.841797 C 44.53125,19.9375 43,23 43,23 c 0,0 -0.830695,-2.542326 -3,-2 -4,1 -6.519898,3 -10,3 -13,0 -15,6 -15,6 0,0 -2,1 -2,3 0,2 2,2 2,2 0,0 0,2 1,2 3,0 3.39746,-0.457869 5,0 7,2 9,3 12,3 3,0 4,-1 4,-1 l 9.722656,16.792969 A 28,28 0 0 0 58.607422,40.666016 L 49,29 48,28 c 0,0 2.529822,-7.156726 0,-8 -0.375,-0.125 -0.734375,-0.171875 -1.076172,-0.158203 z"
       id="path4-5" /></g></svg>

<svg xmlns="http://www.w3.org/2000/svg" width="64" height="64" version="1.1">
 <circle style="opacity:.2" cx="32" cy="33" r="28"/>
 <circle style="fill:#606d6e" cx="32" cy="32" r="28"/>
 <path style="opacity:0.2;fill:#ffffff" d="m32 4a28 28 0 0 0 -28 28 28 28 0 0 0 0.0215 0.586 28 28 0 0 1 27.9785 -27.586 28 28 0 0 1 27.979 27.414 28 28 0 0 0 0.021 -0.414 28 28 0 0 0 -28 -28z"/>
 <path style="opacity:.2" d="M 46.923828 20.841797 C 44.53125 20.9375 43 24 43 24 C 43 24 42.169305 21.457674 40 22 C 36 23 33.480102 25 30 25 C 17 25 15 31 15 31 C 15 31 13 32 13 34 C 13 36 15 36 15 36 C 15 36 15 38 16 38 C 19 38 19.39746 37.542131 21 38 C 28 40 30 41 33 41 C 36 41 37 40 37 40 L 46.289062 56.042969 A 28 28 0 0 0 58.353516 41.359375 L 49 30 L 48 29 C 48 29 50.529822 21.843274 48 21 C 47.625 20.875 47.265625 20.828125 46.923828 20.841797 z"/>
 <path style="fill:#ffffff" d="m46.923828 19.841797c-2.392578 0.095703-3.923828 3.158203-3.923828 3.158203s-0.830695-2.542326-3-2c-4 1-6.519898 3-10 3-13 0-15 6-15 6s-2 1-2 3 2 2 2 2 0 2 1 2c3 0 3.39746-0.457869 5 0 7 2 9 3 12 3s4-1 4-1l9.722656 16.792969a28 28 0 0 0 11.884766 -15.126953l-9.607422-11.666016-1-1s2.529822-7.156726 0-8c-0.375-0.125-0.734375-0.171875-1.076172-0.158203z"/>
</svg>
